SVG_Azure_All/Application Service WebJob.svg

<?xml version="1.0" encoding="UTF-8" standalone="no"?>
<!-- Generated by Microsoft Visio, SVG Export Application Service WebJob.svg Page-1 -->

<svg
   xmlns:dc="http://purl.org/dc/elements/1.1/"
   xmlns:cc="http://creativecommons.org/ns#"
   xmlns:rdf="http://www.w3.org/1999/02/22-rdf-syntax-ns#"
   xmlns:svg="http://www.w3.org/2000/svg"
   xmlns="http://www.w3.org/2000/svg"
   xmlns:xlink="http://www.w3.org/1999/xlink"
   xmlns:sodipodi="http://sodipodi.sourceforge.net/DTD/sodipodi-0.dtd"
   xmlns:inkscape="http://www.inkscape.org/namespaces/inkscape"
   width="0.75462651in"
   height="0.7990191in"
   viewBox="0 0 54.333288 57.52943"
   xml:space="preserve"
   class="st11"
   version="1.1"
   id="svg116"
   sodipodi:docname="Application Service WebJob.svg"
   style="font-size:12px;overflow:visible;color-interpolation-filters:sRGB;fill:none;fill-rule:evenodd;stroke-linecap:square;stroke-miterlimit:3"
   inkscape:version="0.92.5 (2060ec1f9f, 2020-04-08)"><metadata
   id="metadata120"><rdf:RDF><cc:Work
       rdf:about=""><dc:format>image/svg+xml</dc:format><dc:type
         rdf:resource="http://purl.org/dc/dcmitype/StillImage" /></cc:Work></rdf:RDF></metadata><sodipodi:namedview
   pagecolor="#ffffff"
   bordercolor="#666666"
   borderopacity="1"
   objecttolerance="10"
   gridtolerance="10"
   guidetolerance="10"
   inkscape:pageopacity="0"
   inkscape:pageshadow="2"
   inkscape:window-width="640"
   inkscape:window-height="480"
   id="namedview118"
   showgrid="false"
   inkscape:zoom="1.4095625"
   inkscape:cx="36.222797"
   inkscape:cy="38.358273"
   inkscape:window-x="0"
   inkscape:window-y="0"
   inkscape:window-maximized="0"
   inkscape:current-layer="svg116" />
	<style
   type="text/css"
   id="style2">
	<![CDATA[
		.st1 {fill:url(#grad7-6);stroke:none;stroke-linecap:butt;stroke-width:34}
		.st2 {fill:#ffffff;fill-opacity:0.6;stroke:none;stroke-linecap:butt;stroke-width:34}
		.st3 {fill:#f2f2f2;fill-opacity:0.55;stroke:none;stroke-linecap:butt;stroke-width:34}
		.st4 {fill:url(#grad0-14);stroke:none;stroke-linecap:butt;stroke-width:34}
		.st5 {fill:url(#grad0-20);stroke:none;stroke-linecap:butt;stroke-width:34}
		.st6 {fill:#f2f2f2;fill-opacity:0.7;stroke:none;stroke-linecap:butt;stroke-width:34}
		.st7 {fill:#f2f2f2;stroke:none;stroke-linecap:butt;stroke-width:34}
		.st8 {fill:url(#grad0-35);stroke:none;stroke-linecap:butt;stroke-width:34}
		.st9 {fill:#50e6ff;stroke:none;stroke-linecap:butt;stroke-width:34}
		.st10 {fill:#ffffff;stroke:none;stroke-linecap:butt;stroke-width:34}
		.st11 {fill:none;fill-rule:evenodd;font-size:12px;overflow:visible;stroke-linecap:square;stroke-miterlimit:3}
	]]>
	</style>

	<defs
   id="Patterns_And_Gradients">
		<radialGradient
   id="grad7-6"
   cx="-4.9382299"
   cy="82.459267"
   r="65.544531"
   gradientTransform="scale(0.99023128,1.0098651)"
   fx="-4.9382299"
   fy="82.459267"
   gradientUnits="userSpaceOnUse">
			<stop
   offset="0.185"
   stop-color="#5ea0ef"
   stop-opacity="1"
   id="stop4" />
			<stop
   offset="1"
   stop-color="#0078d4"
   stop-opacity="1"
   id="stop6" />
		</radialGradient>
		<linearGradient
   id="grad0-14"
   x1="0"
   y1="0"
   x2="1"
   y2="0"
   gradientTransform="rotate(-90.455522,0.5,0.5)">
			<stop
   offset="0"
   stop-color="#cccccc"
   stop-opacity="1"
   id="stop9" />
			<stop
   offset="0.125"
   stop-color="#d7d7d7"
   stop-opacity="1"
   id="stop11" />
			<stop
   offset="1"
   stop-color="#fcfcfc"
   stop-opacity="1"
   id="stop13" />
		</linearGradient>
		<linearGradient
   id="grad0-20"
   x1="0"
   y1="114.58845"
   x2="9.8199856"
   y2="114.58845"
   gradientTransform="scale(0.99074282,1.0093437)"
   gradientUnits="userSpaceOnUse">
			<stop
   offset="0"
   stop-color="#cccccc"
   stop-opacity="1"
   id="stop16" />
			<stop
   offset="0.125"
   stop-color="#d7d7d7"
   stop-opacity="1"
   id="stop18" />
			<stop
   offset="1"
   stop-color="#fcfcfc"
   stop-opacity="1"
   id="stop20" />
		</linearGradient>
		<linearGradient
   id="grad0-35"
   x1="0"
   y1="96.262763"
   x2="28.083654"
   y2="96.262763"
   gradientTransform="scale(0.99025577,1.0098401)"
   gradientUnits="userSpaceOnUse">
			<stop
   offset="0"
   stop-color="#32bedd"
   stop-opacity="1"
   id="stop23" />
			<stop
   offset="0.575"
   stop-color="#32ceef"
   stop-opacity="1"
   id="stop25" />
			<stop
   offset="1"
   stop-color="#32d4f5"
   stop-opacity="1"
   id="stop27" />
		</linearGradient>
	<linearGradient
   inkscape:collect="always"
   xlink:href="#grad0-14"
   id="linearGradient4630"
   gradientTransform="scale(0.99074253,1.009344)"
   x1="0"
   y1="109.29161"
   x2="15.117086"
   y2="109.29161"
   gradientUnits="userSpaceOnUse" /><linearGradient
   inkscape:collect="always"
   xlink:href="#grad0-14"
   id="linearGradient4632"
   gradientTransform="scale(0.99074253,1.009344)"
   x1="0"
   y1="109.29161"
   x2="15.117086"
   y2="109.29161"
   gradientUnits="userSpaceOnUse" /></defs>
	<g
   id="g114"
   transform="translate(-33.998813,-34.024883)">
		<title
   id="title31">Page-1</title>
		<g
   id="group9154-1"
   transform="translate(34.4735,-34.0157)">
			<title
   id="title33">Application Service WebJob</title>
			<g
   id="group9155-2">
				<title
   id="title35">MsPortalFx.base.images-77</title>
				<g
   id="shape9156-3"
   transform="translate(4.41388,-15.2323)">
					<title
   id="title37">Sheet.9156</title>
					<path
   d="M 32.69,125.57 A 23.298567,23.735993 0 1 1 4.13,88.06 l 0.25,-0.18 a 23.2967,23.7341 0 0 1 28.31,37.69 z"
   class="st1"
   id="path39"
   inkscape:connector-curvature="0"
   style="fill:url(#grad7-6);stroke:none;stroke-width:34;stroke-linecap:butt" />
				</g>
				<g
   id="shape9157-7"
   transform="translate(2.66559,-17.6842)">
					<title
   id="title42">Sheet.9157</title>
					<path
   d="m 13.82,104.33 a 35.6754,36.3452 0 0 1 24.43,-10 22.9643,23.3955 -180 0 0 -4.07,-4.05 39.5875,40.3307 -180 0 0 -12.87,3.1 33.9686,34.6064 -180 0 0 -11.19,7.86 7.50455,7.64545 0 0 1 3.7,3.09 z m -11.53,9.53 a 51.8926,52.8669 -180 0 0 -2.29,7.33 24.6103,25.0724 -180 0 0 1.71,2.57 21.6763,22.0832 -180 0 0 1.51,1.81 48.901,49.8192 0 0 1 2.97,-9.69 7.45341,7.59335 0 0 1 -3.9,-2.02 z"
   class="st2"
   id="path44"
   inkscape:connector-curvature="0"
   style="fill:#ffffff;fill-opacity:0.6;stroke:none;stroke-width:34;stroke-linecap:butt" />
				</g>
				<g
   id="shape9158-9"
   transform="translate(2.71992,-39.6209)">
					<title
   id="title47">Sheet.9158</title>
					<path
   d="m 4.92,123.14 a 32.7253,33.3398 0 0 1 -1.89,-8.23 23.2584,23.695 -180 0 0 -3.03,4.07 36.3114,36.9932 -180 0 0 1.57,6.59 7.44702,7.58684 0 0 1 3.35,-2.43 z"
   class="st3"
   id="path49"
   inkscape:connector-curvature="0"
   style="fill:#f2f2f2;fill-opacity:0.55;stroke:none;stroke-width:34;stroke-linecap:butt" />
				</g>
				<g
   id="shape9159-11"
   transform="translate(2.66239,-27.2475)">
					<title
   id="title52">Sheet.9159</title>
					<ellipse
   cx="7.4885702"
   cy="117.942"
   rx="7.4885702"
   ry="7.6291699"
   class="st4"
   id="ellipse54"
   style="fill:url(#linearGradient4630);stroke:none;stroke-width:34;stroke-linecap:butt" />
				</g>
				<g
   id="shape9160-15"
   transform="translate(11.5253,-16.7985)">
					<title
   id="title57">Sheet.9160</title>
					<path
   d="m 9.54,121.42 a 4.84216,4.93307 0 0 1 1.47,-3.54 32.9427,33.5612 0 0 1 -6.92,-5.18 7.4662,7.60638 0 0 1 -4.09,2.28 32.6422,33.2551 -180 0 0 3.98,3.58 33.8792,34.5152 -180 0 0 5.61,3.48 4.47461,4.55862 0 0 1 -0.05,-0.62 z m 17.27,0.6 a 32.882,33.4993 0 0 1 -7.55,-0.9 c 0,0.1 0.01,0.2 0.01,0.3 a 4.84216,4.93307 0 0 1 -1.38,3.47 37.967,38.6799 -180 0 0 9.35,0.68 22.9643,23.3955 -180 0 0 3.15,-3.75 33.6139,34.245 0 0 1 -3.58,0.2 z"
   class="st3"
   id="path59"
   inkscape:connector-curvature="0"
   style="fill:#f2f2f2;fill-opacity:0.55;stroke:none;stroke-width:34;stroke-linecap:butt" />
				</g>
				<g
   id="shape9161-17"
   transform="translate(21.069,-15.991)">
					<title
   id="title62">Sheet.9161</title>
					<ellipse
   cx="4.8645401"
   cy="120.615"
   rx="4.8645401"
   ry="4.9558702"
   class="st5"
   id="ellipse64"
   style="fill:url(#grad0-20);stroke:none;stroke-width:34;stroke-linecap:butt" />
				</g>
				<g
   id="shape9162-21"
   transform="translate(12.9476,-34.1896)">
					<title
   id="title67">Sheet.9162</title>
					<path
   d="m 18.97,125.57 a 5.07548,5.17077 0 0 1 1.68,-2.76 69.2381,70.5381 0 0 1 -12.23,-11.59 46.587,47.4617 0 0 1 -5.44,-8.15 23.0986,23.5322 -180 0 0 -2.98,1.17 48.6166,49.5294 -180 0 0 5.85,8.89 72.2649,73.6217 -180 0 0 13.12,12.44 z"
   class="st6"
   id="path69"
   inkscape:connector-curvature="0"
   style="fill:#f2f2f2;fill-opacity:0.7;stroke:none;stroke-width:34;stroke-linecap:butt" />
				</g>
				<g
   id="shape9163-23"
   transform="translate(31.8528,-27.9736)">
					<title
   id="title72">Sheet.9163</title>
					<ellipse
   cx="5.16817"
   cy="120.306"
   rx="5.16817"
   ry="5.2652001"
   class="st7"
   id="ellipse74"
   style="fill:#f2f2f2;stroke:none;stroke-width:34;stroke-linecap:butt" />
				</g>
				<g
   id="shape9164-25"
   transform="translate(40.2587,-26.5832)">
					<title
   id="title77">Sheet.9164</title>
					<path
   d="M 5.44,122.46 C 5.12,122.3 4.87,122.16 4.56,121.99 L 4.48,121.95 C 4.21,121.8 3.94,121.65 3.67,121.5 L 3.52,121.42 2.79,121 2.61,120.9 C 2.32,120.73 2.03,120.57 1.75,120.39 A 4.90928,5.00145 0 0 1 0,122.98 c 0.34,0.2 0.68,0.4 1.03,0.6 l 0.23,0.13 0.95,0.54 0.1,0.05 c 0.77,0.42 1.55,0.85 2.36,1.27 a 22.715,23.1415 -180 0 0 0.78,-3.11 z"
   class="st3"
   id="path79"
   inkscape:connector-curvature="0"
   style="fill:#f2f2f2;fill-opacity:0.55;stroke:none;stroke-width:34;stroke-linecap:butt" />
				</g>
				<g
   id="shape9165-27"
   transform="translate(2.66239,-27.2475)">
					<title
   id="title82">Sheet.9165</title>
					<ellipse
   cx="7.4885702"
   cy="117.942"
   rx="7.4885702"
   ry="7.6291699"
   class="st4"
   id="ellipse84"
   style="fill:url(#linearGradient4632);stroke:none;stroke-width:34;stroke-linecap:butt" />
				</g>
				<g
   id="shape9166-30"
   transform="translate(21.069,-15.991)">
					<title
   id="title87">Sheet.9166</title>
					<ellipse
   cx="4.8645401"
   cy="120.615"
   rx="4.8645401"
   ry="4.9558702"
   class="st7"
   id="ellipse89"
   style="fill:#f2f2f2;stroke:none;stroke-width:34;stroke-linecap:butt" />
				</g>
				<g
   id="shape9167-32"
   transform="translate(26.0486,-6.51882)">
					<title
   id="title92">Sheet.9167</title>
					<path
   d="m 27.81,108.33 -1.01,-3.12 h -4.12 l -1.55,-1.84 0.5,-4.17 -2.87,-1.47 -0.35,0.37 -2.56,2.6 -2.38,-0.17 -2.56,-3.32 -3.06,1.03 -0.02,0.49 v 3.7 L 6.02,104.01 2,103.5 l -1.44,2.91 0.36,0.37 2.56,2.6 -0.17,2.42 -3.31,2.64 1.01,3.11 0.49,0.02 h 3.63 l 1.55,1.85 -0.5,4.17 2.87,1.46 0.35,-0.36 2.56,-2.61 2.38,0.17 2.55,3.32 3.07,-1.03 0.02,-0.49 v -3.7 l 1.8,-1.58 4.1,0.5 1.44,-2.91 -0.36,-0.37 -2.56,-2.6 0.17,-2.43 z m -11.95,9.05 a 6.20372,6.3202 0 1 1 3.94,-7.98 6.20052,6.31694 0 0 1 -3.94,7.98 z"
   class="st8"
   id="path94"
   inkscape:connector-curvature="0"
   style="fill:url(#grad0-35);stroke:none;stroke-width:34;stroke-linecap:butt" />
				</g>
				<g
   id="shape9168-36">
					<title
   id="title97">Sheet.9168</title>
					<path
   d="m 22.26,115.43 v -2.59 l -0.36,-0.13 -2.72,-0.91 -0.71,-1.75 1.38,-3 -1.79,-1.83 -0.36,0.19 -2.53,1.3 -1.74,-0.73 -1.1,-3.1 H 9.79 l -0.13,0.36 -0.89,2.77 -1.74,0.73 -2.89,-1.41 -1.78,1.81 0.17,0.37 1.28,2.58 -0.71,1.77 -3.1,1.12 v 2.6 l 0.35,0.14 2.72,0.91 0.71,1.76 -1.38,3 1.78,1.81 0.36,-0.18 2.54,-1.3 1.73,0.72 1.12,3.13 h 2.53 l 0.14,-0.36 0.89,-2.77 1.73,-0.72 2.94,1.4 1.78,-1.81 -0.18,-0.37 -1.27,-2.58 0.71,-1.77 z m -11.13,3.75 a 4.88691,4.97866 0 1 1 4.88,-4.98 4.88371,4.9754 0 0 1 -4.88,4.98 z"
   class="st9"
   id="path99"
   inkscape:connector-curvature="0"
   style="fill:#50e6ff;stroke:none;stroke-width:34;stroke-linecap:butt" />
				</g>
				<g
   id="shape9169-38"
   transform="translate(33.7545,-14.3922)">
					<title
   id="title102">Sheet.9169</title>
					<ellipse
   cx="6.2037201"
   cy="119.251"
   rx="6.2037201"
   ry="6.3202"
   class="st10"
   id="ellipse104"
   style="fill:#ffffff;stroke:none;stroke-width:34;stroke-linecap:butt" />
				</g>
				<g
   id="shape9170-40"
   transform="translate(6.24527,-6.39183)">
					<title
   id="title107">Sheet.9170</title>
					<ellipse
   cx="4.8837099"
   cy="120.596"
   rx="4.8837099"
   ry="4.9754"
   class="st10"
   id="ellipse109"
   style="fill:#ffffff;stroke:none;stroke-width:34;stroke-linecap:butt" />
				</g>
			</g>
		</g>
	</g>
</svg>

<?xml version="1.0" encoding="UTF-8" standalone="no"?>
<!DOCTYPE svg PUBLIC "-//W3C//DTD SVG 1.1//EN" "http://www.w3.org/Graphics/SVG/1.1/DTD/svg11.dtd">
<!-- Generated by Microsoft Visio, SVG Export Application Service WebJob.svg Page-1 -->
<svg xmlns="http://www.w3.org/2000/svg" xmlns:xlink="http://www.w3.org/1999/xlink" xmlns:ev="http://www.w3.org/2001/xml-events"
		width="1.69905in" height="1.74404in" viewBox="0 0 122.332 125.571" xml:space="preserve" color-interpolation-filters="sRGB"
		class="st11">
	<style type="text/css">
	<![CDATA[
		.st1 {fill:url(#grad7-6);stroke:none;stroke-linecap:butt;stroke-width:34}
		.st2 {fill:#ffffff;fill-opacity:0.6;stroke:none;stroke-linecap:butt;stroke-width:34}
		.st3 {fill:#f2f2f2;fill-opacity:0.55;stroke:none;stroke-linecap:butt;stroke-width:34}
		.st4 {fill:url(#grad0-14);stroke:none;stroke-linecap:butt;stroke-width:34}
		.st5 {fill:url(#grad0-20);stroke:none;stroke-linecap:butt;stroke-width:34}
		.st6 {fill:#f2f2f2;fill-opacity:0.7;stroke:none;stroke-linecap:butt;stroke-width:34}
		.st7 {fill:#f2f2f2;stroke:none;stroke-linecap:butt;stroke-width:34}
		.st8 {fill:url(#grad0-35);stroke:none;stroke-linecap:butt;stroke-width:34}
		.st9 {fill:#50e6ff;stroke:none;stroke-linecap:butt;stroke-width:34}
		.st10 {fill:#ffffff;stroke:none;stroke-linecap:butt;stroke-width:34}
		.st11 {fill:none;fill-rule:evenodd;font-size:12px;overflow:visible;stroke-linecap:square;stroke-miterlimit:3}
	]]>
	</style>

	<defs id="Patterns_And_Gradients">
		<radialGradient id="grad7-6" cx="0" cy="0" r="1.4">
			<stop offset="0.185" stop-color="#5ea0ef" stop-opacity="1"/>
			<stop offset="1" stop-color="#0078d4" stop-opacity="1"/>
		</radialGradient>
		<linearGradient id="grad0-14" x1="0" y1="0" x2="1" y2="0" gradientTransform="rotate(-90.455522218084 0.5 0.5)">
			<stop offset="0" stop-color="#cccccc" stop-opacity="1"/>
			<stop offset="0.125" stop-color="#d7d7d7" stop-opacity="1"/>
			<stop offset="1" stop-color="#fcfcfc" stop-opacity="1"/>
		</linearGradient>
		<linearGradient id="grad0-20" x1="0" y1="0" x2="1" y2="0" gradientTransform="rotate(-90 0.5 0.5)">
			<stop offset="0" stop-color="#cccccc" stop-opacity="1"/>
			<stop offset="0.125" stop-color="#d7d7d7" stop-opacity="1"/>
			<stop offset="1" stop-color="#fcfcfc" stop-opacity="1"/>
		</linearGradient>
		<linearGradient id="grad0-35" x1="0" y1="0" x2="1" y2="0" gradientTransform="rotate(-108.31766573731 0.5 0.5)">
			<stop offset="0" stop-color="#32bedd" stop-opacity="1"/>
			<stop offset="0.575" stop-color="#32ceef" stop-opacity="1"/>
			<stop offset="1" stop-color="#32d4f5" stop-opacity="1"/>
		</linearGradient>
	</defs>
	<g>
		<title>Page-1</title>
		<g id="group8959-1" transform="translate(34.4735,-34.0157)">
			<title>Application Service WebJob</title>
			<g id="group8960-2">
				<title>MsPortalFx.base.images-77</title>
				<g id="shape8961-3" transform="translate(4.41388,-15.2323)">
					<title>Sheet.8961</title>
					<path d="M32.69 125.57 A23.2972 23.7346 0 1 1 4.13 88.06 L4.38 87.88 A23.2967 23.7341 0 0 1 32.69 125.57 Z"
							class="st1"/>
				</g>
				<g id="shape8962-7" transform="translate(2.66559,-17.6842)">
					<title>Sheet.8962</title>
					<path d="M13.82 104.33 A35.6754 36.3452 0 0 1 38.25 94.33 A22.9643 23.3955 -180 0 0 34.18 90.28 A39.5875 40.3307
								 -180 0 0 21.31 93.38 A33.9686 34.6064 -180 0 0 10.12 101.24 A7.50455 7.64545 0 0 1 13.82 104.33
								 ZM2.29 113.86 A51.8926 52.8669 -180 0 0 -0 121.19 A24.6103 25.0724 -180 0 0 1.71 123.76 A21.6763
								 22.0832 -180 0 0 3.22 125.57 A48.901 49.8192 0 0 1 6.19 115.88 A7.45341 7.59335 0 0 1 2.29 113.86
								 Z" class="st2"/>
				</g>
				<g id="shape8963-9" transform="translate(2.71992,-39.6209)">
					<title>Sheet.8963</title>
					<path d="M4.92 123.14 A32.7253 33.3398 0 0 1 3.03 114.91 A23.2584 23.695 -180 0 0 0 118.98 A36.3114 36.9932 -180
								 0 0 1.57 125.57 A7.44702 7.58684 0 0 1 4.92 123.14 Z" class="st3"/>
				</g>
				<g id="shape8964-11" transform="translate(2.66239,-27.2475)">
					<title>Sheet.8964</title>
					<ellipse cx="7.48857" cy="117.942" rx="7.48857" ry="7.62917" class="st4"/>
				</g>
				<g id="shape8965-15" transform="translate(11.5253,-16.7985)">
					<title>Sheet.8965</title>
					<path d="M9.54 121.42 A4.84216 4.93307 0 0 1 11.01 117.88 A32.9427 33.5612 0 0 1 4.09 112.7 A7.4662 7.60638 0
								 0 1 0 114.98 A32.6422 33.2551 -180 0 0 3.98 118.56 A33.8792 34.5152 -180 0 0 9.59 122.04 A4.47461
								 4.55862 0 0 1 9.54 121.42 ZM26.81 122.02 A32.882 33.4993 0 0 1 19.26 121.12 C19.26 121.22 19.27
								 121.32 19.27 121.42 A4.84216 4.93307 0 0 1 17.89 124.89 A37.967 38.6799 -180 0 0 27.24 125.57 A22.9643
								 23.3955 -180 0 0 30.39 121.82 A33.6139 34.245 0 0 1 26.81 122.02 Z" class="st3"/>
				</g>
				<g id="shape8966-17" transform="translate(21.069,-15.991)">
					<title>Sheet.8966</title>
					<ellipse cx="4.86454" cy="120.615" rx="4.86454" ry="4.95587" class="st5"/>
				</g>
				<g id="shape8967-21" transform="translate(12.9476,-34.1896)">
					<title>Sheet.8967</title>
					<path d="M18.97 125.57 A5.07548 5.17077 0 0 1 20.65 122.81 A69.2381 70.5381 0 0 1 8.42 111.22 A46.587 47.4617
								 0 0 1 2.98 103.07 A23.0986 23.5322 -180 0 0 0 104.24 A48.6166 49.5294 -180 0 0 5.85 113.13 A72.2649
								 73.6217 -180 0 0 18.97 125.57 Z" class="st6"/>
				</g>
				<g id="shape8968-23" transform="translate(31.8528,-27.9736)">
					<title>Sheet.8968</title>
					<ellipse cx="5.16817" cy="120.306" rx="5.16817" ry="5.2652" class="st7"/>
				</g>
				<g id="shape8969-25" transform="translate(40.2587,-26.5832)">
					<title>Sheet.8969</title>
					<path d="M5.44 122.46 C5.12 122.3 4.87 122.16 4.56 121.99 L4.48 121.95 C4.21 121.8 3.94 121.65 3.67 121.5 L3.52
								 121.42 L2.79 121 L2.61 120.9 C2.32 120.73 2.03 120.57 1.75 120.39 A4.90928 5.00145 0 0 1 -0 122.98
								 C0.34 123.18 0.68 123.38 1.03 123.58 L1.26 123.71 L2.21 124.25 L2.31 124.3 C3.08 124.72 3.86 125.15
								 4.67 125.57 A22.715 23.1415 -180 0 0 5.45 122.46 L5.44 122.46 Z" class="st3"/>
				</g>
				<g id="shape8970-27" transform="translate(2.66239,-27.2475)">
					<title>Sheet.8970</title>
					<ellipse cx="7.48857" cy="117.942" rx="7.48857" ry="7.62917" class="st4"/>
				</g>
				<g id="shape8971-30" transform="translate(21.069,-15.991)">
					<title>Sheet.8971</title>
					<ellipse cx="4.86454" cy="120.615" rx="4.86454" ry="4.95587" class="st7"/>
				</g>
				<g id="shape8972-32" transform="translate(26.0486,-6.51882)">
					<title>Sheet.8972</title>
					<path d="M27.81 108.33 L26.8 105.21 L22.68 105.21 L21.13 103.37 L21.63 99.2 L18.76 97.73 L18.41 98.1 L15.85 100.7
								 L13.47 100.53 L10.91 97.21 L7.85 98.24 L7.83 98.73 L7.83 102.43 L6.02 104.01 L2 103.5 L0.56 106.41
								 L0.92 106.78 L3.48 109.38 L3.31 111.8 L0 114.44 L1.01 117.55 L1.5 117.57 L5.13 117.57 L6.68 119.42
								 L6.18 123.59 L9.05 125.05 L9.4 124.69 L11.96 122.08 L14.34 122.25 L16.89 125.57 L19.96 124.54 L19.98
								 124.05 L19.98 120.35 L21.78 118.77 L25.88 119.27 L27.32 116.36 L26.96 115.99 L24.4 113.39 L24.57
								 110.96 L27.81 108.33 ZM15.86 117.38 A6.20372 6.3202 0 1 1 19.8 109.4 A6.20052 6.31694 0 0 1 15.86
								 117.38 Z" class="st8"/>
				</g>
				<g id="shape8973-36">
					<title>Sheet.8973</title>
					<path d="M22.26 115.43 L22.26 112.84 L21.9 112.71 L19.18 111.8 L18.47 110.05 L19.85 107.05 L18.06 105.22 L17.7
								 105.41 L15.17 106.71 L13.43 105.98 L12.33 102.88 L9.79 102.88 L9.66 103.24 L8.77 106.01 L7.03 106.74
								 L4.14 105.33 L2.36 107.14 L2.53 107.51 L3.81 110.09 L3.1 111.86 L0 112.98 L0 115.58 L0.35 115.72
								 L3.07 116.63 L3.78 118.39 L2.4 121.39 L4.18 123.2 L4.54 123.02 L7.08 121.72 L8.81 122.44 L9.93 125.57
								 L12.46 125.57 L12.6 125.21 L13.49 122.44 L15.22 121.72 L18.16 123.12 L19.94 121.31 L19.76 120.94
								 L18.49 118.36 L19.2 116.59 L22.26 115.43 ZM11.13 119.18 A4.88691 4.97866 0 1 1 16.01 114.2 A4.88371
								 4.9754 0 0 1 11.13 119.18 Z" class="st9"/>
				</g>
				<g id="shape8974-38" transform="translate(33.7545,-14.3922)">
					<title>Sheet.8974</title>
					<ellipse cx="6.20372" cy="119.251" rx="6.20372" ry="6.3202" class="st10"/>
				</g>
				<g id="shape8975-40" transform="translate(6.24527,-6.39183)">
					<title>Sheet.8975</title>
					<ellipse cx="4.88371" cy="120.596" rx="4.88371" ry="4.9754" class="st10"/>
				</g>
			</g>
		</g>
	</g>
</svg>
